svgs/raiffeisen_e_banking.svg

<svg viewBox="0 0 192 192" xml:space="preserve" style="fill-rule:evenodd;clip-rule:evenodd;stroke-linejoin:round;stroke-miterlimit:2" xmlns="http://www.w3.org/2000/svg"><path d="M85.497 207.88a258.644 258.644 0 0 1 6.872 13.767l67.592 145.727a14.646 14.646 0 0 0 13.285 8.482h78.679A14.643 14.643 0 0 0 265.2 355.03l-60.985-130.961c-2.261-5.04-4.94-9.866-7.571-14.136 37.105-17.711 61.357-55.063 61.357-101.166 0-35.149-10.029-61.802-26.852-81.292-24.711-28.629-64.945-42.119-113.39-42.119L.749-11.598c-8.088 0-14.644 6.557-14.644 14.644v358.166c0 8.088 6.556 14.644 14.644 14.644h70.104c8.088 0 14.644-6.556 14.644-14.644V207.88Zm21.269-22.072c24.645-1.517 43.118-8.623 55.944-19.462 15.603-13.186 23.663-32.058 23.663-55.569 0-19.16-5.839-33.951-15.63-44.952-13.865-15.579-36.556-23.811-65.084-23.811-21.607 0-36.362 1.592-36.362 1.592a14.643 14.643 0 0 0-13.088 14.561v288.401H15.392V17.621l102.367-2.977c38.712 0 71.473 9.09 91.219 31.967 12.815 14.847 19.735 35.382 19.735 62.156 0 39.442-23.704 70.491-58.771 79.924a14.64 14.64 0 0 0-10.161 9.737 14.64 14.64 0 0 0 2.737 13.804s9.271 11.062 15.008 23.899l.094.207 51.332 110.23h-46.356l-63.662-137.252c-4.383-9.443-8.467-17.182-12.168-23.508Zm-21.269-29.095c4.001.122 7.735.118 11.079.118 21.14 0 36.923-4.144 47.23-12.854 9.238-7.807 13.28-19.281 13.28-33.2 0-10.779-2.712-19.292-8.22-25.481-9.087-10.209-24.512-13.995-43.207-13.995-7.866 0-14.738.226-20.162.499v84.913Z" style="fill-rule:evenodd;clip-rule:evenodd;stroke-linejoin:round;stroke-miterlimit:2" transform="translate(44.236 22) scale(.40973)"/></svg>

<?xml version="1.0" encoding="UTF-8" standalone="no"?>
<svg
   width="100%"
   height="100%"
   viewBox="0 0 192 192"
   version="1.1"
   xml:space="preserve"
   style="fill-rule:evenodd;clip-rule:evenodd;stroke-linejoin:round;stroke-miterlimit:2;"
   id="svg10"
   sodipodi:docname="raiffeisen_e_banking.svg"
   inkscape:version="1.2.1 (9c6d41e410, 2022-07-14)"
   xmlns:inkscape="http://www.inkscape.org/namespaces/inkscape"
   xmlns:sodipodi="http://sodipodi.sourceforge.net/DTD/sodipodi-0.dtd"
   xmlns="http://www.w3.org/2000/svg"
   xmlns:svg="http://www.w3.org/2000/svg"><defs
   id="defs14" /><sodipodi:namedview
   id="namedview12"
   pagecolor="#ffffff"
   bordercolor="#000000"
   borderopacity="0.25"
   inkscape:showpageshadow="2"
   inkscape:pageopacity="0.0"
   inkscape:pagecheckerboard="0"
   inkscape:deskcolor="#d1d1d1"
   showgrid="false"
   inkscape:zoom="5.3489583"
   inkscape:cx="96.186952"
   inkscape:cy="95.906524"
   inkscape:window-width="2552"
   inkscape:window-height="1303"
   inkscape:window-x="4"
   inkscape:window-y="36"
   inkscape:window-maximized="0"
   inkscape:current-layer="svg10" />
    <path
   d="M85.497,207.88C87.66,211.894 89.964,216.467 92.369,221.647C92.369,221.647 159.961,367.374 159.961,367.374C162.361,372.546 167.544,375.856 173.246,375.856L251.925,375.856C256.927,375.856 261.584,373.302 264.273,369.083C266.962,364.865 267.311,359.565 265.2,355.03L204.215,224.069C201.954,219.029 199.275,214.203 196.644,209.933C233.749,192.222 258.001,154.87 258.001,108.767C258.001,73.618 247.972,46.965 231.149,27.475C206.438,-1.154 166.204,-14.644 117.759,-14.644L0.749,-11.598C-7.339,-11.598 -13.895,-5.041 -13.895,3.046L-13.895,361.212C-13.895,369.3 -7.339,375.856 0.749,375.856L70.853,375.856C78.941,375.856 85.497,369.3 85.497,361.212L85.497,207.88ZM106.766,185.808C131.411,184.291 149.884,177.185 162.71,166.346C178.313,153.16 186.373,134.288 186.373,110.777C186.373,91.617 180.534,76.826 170.743,65.825C156.878,50.246 134.187,42.014 105.659,42.014C84.052,42.014 69.297,43.606 69.297,43.606C61.854,44.401 56.209,50.681 56.209,58.167L56.209,346.568L15.392,346.568C15.392,346.568 15.392,17.621 15.392,17.621L117.759,14.644C156.471,14.644 189.232,23.734 208.978,46.611C221.793,61.458 228.713,81.993 228.713,108.767C228.713,148.209 205.009,179.258 169.942,188.691C165.115,189.989 161.284,193.66 159.781,198.428C158.277,203.195 159.309,208.4 162.518,212.232C162.518,212.232 171.789,223.294 177.526,236.131C177.557,236.2 177.588,236.269 177.62,236.338L228.952,346.568C228.952,346.568 182.596,346.568 182.596,346.568L118.934,209.316C114.551,199.873 110.467,192.134 106.766,185.808ZM85.497,156.713C89.498,156.835 93.232,156.831 96.576,156.831C117.716,156.831 133.499,152.687 143.806,143.977C153.044,136.17 157.086,124.696 157.086,110.777C157.086,99.998 154.374,91.485 148.866,85.296C139.779,75.087 124.354,71.301 105.659,71.301C97.793,71.301 90.921,71.527 85.497,71.8L85.497,156.713Z"
   id="path4"
   style="fill-rule:evenodd;clip-rule:evenodd;stroke-linejoin:round;stroke-miterlimit:2"
   transform="matrix(0.409732,0,0,0.409732,44.2359,22)"
   inkscape:label="raiffeisen_e_banking_form" />
</svg>
